X: 192
T:Untitled. HA.191
M:C
L:1/8
Q:1/4=180
C:"J.A."
S:Henry Atkinson's original MS,Hartburn,N'umberland,1694.
O:England
A:Hartburn,Northumberland
N:Some indications of style given in MS.
H:1/8
Z:vmp.Neil Brookes, Jan.2004
K:C
ef|"v"g2 "u"e"u"f "v"g2 cd|efed c2 "u"e"u"f|\
"v"g2 "u"f"u"e d2G2|"v"c6:|!
|:"u"e"u"f|gegeg3g|agag "*"a3a|\
"v"b2 "u"a"u"g "ds"f2 "u"e"u"d|"v*"g6 ef|!
gagf efed|cdcB A2 "u"B"u"c|dedc BcBA|GAGF E2 FG|!
ABAG FGFE|DFEDC2"u"e"u"f|g2 "u"f"u"e d2G2|"v"c6:|]
W: detailed bowing marks in MS.|
